static/images/gray-nav-logo-border.svg

<svg height="1074" viewBox="0 0 1074 1074" width="1074" xmlns="http://www.w3.org/2000/svg"><g fill="none" fill-rule="evenodd" transform="translate(25 25)"><rect height="1023.51129" rx="511.255881" stroke="#d7d7d7" stroke-width="49.927332" width="1023.51129"/><path d="m672.803745 289.861595c12.987548 0 23.526017 11.020863 23.735486 23.970377l.00318.392991v173.667075c0 .276011.223751.499762.499761.499762h36.607521c13.248506 0 23.988545 10.740037 23.988545 23.988545s-10.740039 23.988545-23.988545 23.988545h-36.607521c-.27601 0-.499761.223751-.499761.499762v172.167793c0 12.987548-9.184053 22.913746-22.096831 23.110972l-.392432.002991h-2.498806c-10.453993 0-17.881324-6.053322-25.261364-14.584725l-.351406-.408116-141.223429-180.596769c-.094718-.121126-.239922-.191908-.393684-.191908h-129.003669c-.276011 0-.499762.223751-.499762.499762v172.167793c0 12.987548-10.408592 24.138286-23.952009 24.363366h-.411358c-12.987549 0-23.526016-11.020862-23.735487-23.970376l-.003177-.39299v-172.167793c0-.276011-.223751-.499762-.499762-.499762h-36.35764c-13.248509 0-23.988546-10.740037-23.988546-23.988545s10.740037-23.988545 23.988546-23.988545h36.35764c.276011 0 .499762-.223751.499762-.499762v-172.417673c0-12.987548 11.020861-24.138286 23.970375-24.360002l.392991-.003364h6.871719c10.898642 0 17.689334 5.281649 24.353629 13.569776l.634439.798363 143.277446 182.721278c.094735.120816.239744.191384.393274.191384h121.327748c.27601 0 .499761-.223751.499761-.499762v-173.667075c0-12.98755 10.408591-24.138288 23.952008-24.363368zm-24.863127 246.507295h-82.922955c-.276011 0-.499762.223751-.499762.499762 0 .11181.037495.220392.106488.308378l82.922954 105.75155c.170313.217199.484452.255208.701651.084895.120817-.094735.191385-.239744.191385-.393274v-105.751549c0-.276011-.223751-.499762-.499761-.499762zm-273.11959-164.470382v115.99353c0 .276011.223751.499762.499762.499762h90.704974c.276011 0 .499761-.223751.499761-.499762 0-.111583-.037342-.219957-.106077-.307854l-90.704974-115.99353c-.170024-.217425-.484113-.255854-.70154-.08583-.121124.094719-.191906.239922-.191906.393684z" fill="#d2d2d2" fill-rule="nonzero"/></g></svg>

<?xml version="1.0" encoding="UTF-8"?>
<svg width="1074px" height="1074px" viewBox="0 0 1074 1074" version="1.1" xmlns="http://www.w3.org/2000/svg" xmlns:xlink="http://www.w3.org/1999/xlink">
    <!-- Generator: Sketch 63.1 (92452) - https://sketch.com -->
    <title>exchange-image-placeholder</title>
    <desc>Created with Sketch.</desc>
    <g id="Page-1" stroke="none" stroke-width="1" fill="none" fill-rule="evenodd">
        <g id="exchange-image-placeholder" transform="translate(25.000000, 25.000000)">
            <rect id="Background" stroke="#D7D7D7" stroke-width="49.9273322" x="0" y="0" width="1023.51129" height="1023.51129" rx="511.255881"></rect>
            <path d="M672.803745,289.861595 C685.791293,289.861595 696.329762,300.882458 696.539231,313.831972 L696.542411,314.224963 L696.542411,487.892038 C696.542411,488.168049 696.766162,488.3918 697.042172,488.3918 L733.649693,488.3918 L733.649693,488.3918 C746.898199,488.3918 757.638238,499.131837 757.638238,512.380345 C757.638238,525.628853 746.898199,536.36889 733.649693,536.36889 L697.042172,536.36889 C696.766162,536.36889 696.542411,536.592641 696.542411,536.868652 L696.542411,709.036445 L696.542411,709.036445 C696.542411,722.023993 687.358358,731.950191 674.44558,732.147417 L674.053148,732.150408 L671.554342,732.150408 C661.100349,732.150408 653.673018,726.097086 646.292978,717.565683 L645.941572,717.157567 L504.718143,536.560798 C504.623425,536.439672 504.478221,536.36889 504.324459,536.36889 L375.32079,536.36889 C375.044779,536.36889 374.821028,536.592641 374.821028,536.868652 L374.821028,709.036445 L374.821028,709.036445 C374.821028,722.023993 364.412436,733.174731 350.869019,733.399811 L350.457661,733.399811 C337.470112,733.399811 326.931645,722.378949 326.722174,709.429435 L326.718997,709.036445 L326.718997,536.868652 C326.718997,536.592641 326.495246,536.36889 326.219235,536.36889 L289.861595,536.36889 L289.861595,536.36889 C276.613086,536.36889 265.873049,525.628853 265.873049,512.380345 C265.873049,499.131837 276.613086,488.3918 289.861595,488.3918 L326.219235,488.3918 C326.495246,488.3918 326.718997,488.168049 326.718997,487.892038 L326.718997,315.474365 L326.718997,315.474365 C326.718997,302.486817 337.739858,291.336079 350.689372,291.114363 L351.082363,291.110999 L357.954082,291.110999 C368.852724,291.110999 375.643416,296.392648 382.307711,304.680775 L382.94215,305.479138 L526.219596,488.200416 C526.314331,488.321232 526.45934,488.3918 526.61287,488.3918 L647.940618,488.3918 C648.216628,488.3918 648.440379,488.168049 648.440379,487.892038 L648.440379,314.224963 L648.440379,314.224963 C648.440379,301.237413 658.84897,290.086675 672.392387,289.861595 L672.803745,289.861595 Z M647.940618,536.36889 L565.017663,536.36889 C564.741652,536.36889 564.517901,536.592641 564.517901,536.868652 C564.517901,536.980462 564.555396,537.089044 564.624389,537.17703 L647.547343,642.92858 C647.717656,643.145779 648.031795,643.183788 648.248994,643.013475 C648.369811,642.91874 648.440379,642.773731 648.440379,642.620201 L648.440379,536.868652 C648.440379,536.592641 648.216628,536.36889 647.940618,536.36889 Z M374.821028,371.898508 L374.821028,487.892038 C374.821028,488.168049 375.044779,488.3918 375.32079,488.3918 L466.025764,488.3918 C466.301775,488.3918 466.525525,488.168049 466.525525,487.892038 C466.525525,487.780455 466.488183,487.672081 466.419448,487.584184 L375.714474,371.590654 C375.54445,371.373229 375.230361,371.3348 375.012934,371.504824 C374.89181,371.599543 374.821028,371.744746 374.821028,371.898508 Z" id="Shape" fill="#D2D2D2" fill-rule="nonzero"></path>
        </g>
    </g>
</svg>
